X: 1
T: Hon.ble Mr. Fraiser (of Lovat's) Reel
C:
R: reel
S: handout for Mari Black online session 2022-2-6 (www.mariblack.com)
Z: 2022 John Chambers <jc:trillian.mit.edu>
M: C|
L: 1/8
K: Bm
# = = = = = = = = = =
"^A"[|] \
g | "Bm"f2ef     dfBd |  "A"cAec        aecA |\
[1  "Bm"f2ef     dfBd |  "A"ef"F#"dc "Bm"dBB :|\
[2  "Bm"BcdB "F#"cdeg | "Bm"fd"F#"ec "Bm"dBB |]
"^B"|: \
f | "Bm"b2fd     b2fd | "A"cea^g       aecA |\
[1  "Bm"b2fd     b2fd | "A"ef"F#"dc "Bm"dBB :|\
[2  "Bm"b^ab "Em"gbeg | "F#"fedc    "Bm"dBB |]
